src/components/00-materials/images-raw/Heater.svg

<svg width="96" height="96" viewBox="0 0 96 96" fill="none" xmlns="http://www.w3.org/2000/svg">
<path d="M22.17 16.3501H13.3C11.9745 16.3501 10.9 17.4246 10.9 18.7501V73.9301C10.9 75.2556 11.9745 76.3301 13.3 76.3301H22.17C23.4955 76.3301 24.57 75.2556 24.57 73.9301V18.7501C24.57 17.4246 23.4955 16.3501 22.17 16.3501Z" stroke="#00008F" stroke-width="2" stroke-linecap="round" stroke-linejoin="round"/>
<path d="M36.08 16.3501H27.21C25.8845 16.3501 24.81 17.4246 24.81 18.7501V73.9301C24.81 75.2556 25.8845 76.3301 27.21 76.3301H36.08C37.4055 76.3301 38.48 75.2556 38.48 73.9301V18.7501C38.48 17.4246 37.4055 16.3501 36.08 16.3501Z" stroke="#00008F" stroke-width="2" stroke-linecap="round" stroke-linejoin="round"/>
<path d="M49.99 16.3501H41.12C39.7945 16.3501 38.72 17.4246 38.72 18.7501V73.9301C38.72 75.2556 39.7945 76.3301 41.12 76.3301H49.99C51.3155 76.3301 52.39 75.2556 52.39 73.9301V18.7501C52.39 17.4246 51.3155 16.3501 49.99 16.3501Z" stroke="#00008F" stroke-width="2" stroke-linecap="round" stroke-linejoin="round"/>
<path d="M63.9 16.3501H55.03C53.7045 16.3501 52.63 17.4246 52.63 18.7501V73.9301C52.63 75.2556 53.7045 76.3301 55.03 76.3301H63.9C65.2255 76.3301 66.3 75.2556 66.3 73.9301V18.7501C66.3 17.4246 65.2255 16.3501 63.9 16.3501Z" stroke="#00008F" stroke-width="2" stroke-linecap="round" stroke-linejoin="round"/>
<path d="M77.8 16.3501H68.93C67.6045 16.3501 66.53 17.4246 66.53 18.7501V73.9301C66.53 75.2556 67.6045 76.3301 68.93 76.3301H77.8C79.1255 76.3301 80.2 75.2556 80.2 73.9301V18.7501C80.2 17.4246 79.1255 16.3501 77.8 16.3501Z" stroke="#00008F" stroke-width="2" stroke-linecap="round" stroke-linejoin="round"/>
<path d="M80.3 23.3101H85.1V32.8701H80.3V23.3101Z" stroke="#00008F" stroke-width="2" stroke-linecap="round" stroke-linejoin="round"/>
<path d="M17.74 81.6501C19.2091 81.6501 20.4 80.4592 20.4 78.9901C20.4 77.521 19.2091 76.3301 17.74 76.3301C16.2709 76.3301 15.08 77.521 15.08 78.9901C15.08 80.4592 16.2709 81.6501 17.74 81.6501Z" stroke="#00008F" stroke-width="2" stroke-linecap="round" stroke-linejoin="round"/>
<path d="M73.37 81.6501C74.8391 81.6501 76.03 80.4592 76.03 78.9901C76.03 77.521 74.8391 76.3301 73.37 76.3301C71.9009 76.3301 70.71 77.521 70.71 78.9901C70.71 80.4592 71.9009 81.6501 73.37 81.6501Z" stroke="#00008F" stroke-width="2" stroke-linecap="round" stroke-linejoin="round"/>
</svg>

<svg width="96" height="96" viewBox="0 0 96 96" fill="none" xmlns="http://www.w3.org/2000/svg"><path d="M22.17 16.35H13.3a2.4 2.4 0 00-2.4 2.4v55.18a2.4 2.4 0 002.4 2.4h8.87a2.4 2.4 0 002.4-2.4V18.75a2.4 2.4 0 00-2.4-2.4zM36.08 16.35h-8.87a2.4 2.4 0 00-2.4 2.4v55.18a2.4 2.4 0 002.4 2.4h8.87a2.4 2.4 0 002.4-2.4V18.75a2.4 2.4 0 00-2.4-2.4zM49.99 16.35h-8.87a2.4 2.4 0 00-2.4 2.4v55.18a2.4 2.4 0 002.4 2.4h8.87a2.4 2.4 0 002.4-2.4V18.75a2.4 2.4 0 00-2.4-2.4zM63.9 16.35h-8.87a2.4 2.4 0 00-2.4 2.4v55.18a2.4 2.4 0 002.4 2.4h8.87a2.4 2.4 0 002.4-2.4V18.75a2.4 2.4 0 00-2.4-2.4zM77.8 16.35h-8.87a2.4 2.4 0 00-2.4 2.4v55.18a2.4 2.4 0 002.4 2.4h8.87a2.4 2.4 0 002.4-2.4V18.75a2.4 2.4 0 00-2.4-2.4zM80.3 23.31h4.8v9.56h-4.8v-9.56zM17.74 81.65a2.66 2.66 0 100-5.32 2.66 2.66 0 000 5.32zM73.37 81.65a2.66 2.66 0 100-5.32 2.66 2.66 0 000 5.32z" stroke="#00008F" stroke-width="2" stroke-linecap="round" stroke-linejoin="round"/></svg>
